!!!!SEGMENT: pl-kk--kk-i-388--017_anonim--exaudi-domine.krn
!!!cenid: 18xx:1414
!!!COM: Anonim
!!!COM-rismid: pe30004985
!!!CDT:
!!!CNT:
!!!OTL: Exaudi Domine
!!!PDT:
!!!AGN: Sacred
!!!SMS-siglum: PL-Kk
!!!SMS-shelfmark: Kk.I.388
!!!SMS-shelfwork: 017 W
!!!SMS-variant:
!!!SMS-altvar:
!!!NIFC-rismid: 1001140963
!!!URL-scan: http://repozytorium.nifc.pl/skany/pl-kk-nut--i-388
!!!ONB-nifc:
**kern	**text	**kern	**text	**kern	**text	**kern	**text
*part4	*part4	*part3	*part3	*part2	*part2	*part1	*part1
*staff4	*staff4	*staff3	*staff3	*staff2	*staff2	*staff1	*staff1
*I"Basso.	*	*I"Tenore.	*	*I"Alto.	*	*I"Soprano.	*
*I'B	*	*I'T	*	*I'A	*	*I'S	*
*clefF4	*	*clefC4	*	*clefC3	*	*clefC1	*
*k[f#c#g#]	*	*k[f#c#g#]	*	*k[f#c#g#]	*	*k[f#c#g#]	*
*M4/4	*	*M4/4	*	*M4/4	*	*M4/4	*
*met(C.)	*	*met(C.)	*	*met(C.)	*	*met(C.)	*
=1	=1	=1	=1	=1	=1	=1	=1
*all\right	*	*all\right	*	*all\right	*	*all\right	*
*2\right	*	*2\right	*	*2\right	*	*2\right	*
!	!	!	!	!	!	!LO:TX:a:t=P:problem:kolejność znaków f# cc# g#	!
!LO:TX:a:t=No 17.sty.	!	!LO:TX:a:t=No 17.sty.	!	!LO:TX:a:t=No 17sty.	!	!LO:TX:a:t=No 17.	!
2AA/	E-	2E/	E-	2c#\	E-	2a\	E-
4AA/	-xau-	4F#/	-xau-	4d\	-xau-	4a\	-xau-
4AA/	-di	4F#/	-di	4d\	-di	4a\	-di
=2	=2	=2	=2	=2	=2	=2	=2
4AA/	Do-	4E/	Do-	4c#\	Do-	4a\	Do-
4AA/	-mi-	4E/	-mi-	4c#\	-mi-	4a\	-mi-
4AA/	-ne,	4E/	-ne	4c#\	-ne	4a\	-ne
4r	.	4r	.	4r	.	4r	.
=3	=3	=3	=3	=3	=3	=3	=3
!LO:TX:a:t=1.	!	!LO:TX:a:t=1.	!	!LO:TX:a:t=1.	!	!	!
1r	.	1r	.	1r	.	4r	.
.	.	.	.	.	.	4cc#\	e-
.	.	.	.	.	.	4ee\	-xau-
.	.	.	.	.	.	8a\	-di
.	.	.	.	.	.	8a\	e-
=4	=4	=4	=4	=4	=4	=4	=4
4r	.	4r	.	4r	.	(2.cc#\	-xau-
4AA/	e-	4E/	e-	4e\	e-	.	.
4AA/	-xau-	4F#/	-xau-	4d#X\	-xau-	.	.
!	!	!LO:TX:t=P:problem:zbędna kreska taktowa pojedyncza	!	!	!	!	!
8AA/	-di	8G#X/	-di	8c#X\	-di	4b\	-[[di]]-
8AA/	e-	8G#/	e-	8c#\	e-	.	.
=5	=5	=5	=5	=5	=5	=5	=5
2AA/	-xau-	4A/	-xau-	4c#\	-xau-	4a\)	-di
.	.	4F#/	.	4d\	.	4r	.
8AA/	-di	8E/	-di	4c#\	-di	4r	.
8r	.	8r	.	.	.	.	.
8AA/	vo-	8E/	vo-	8e\	vo-	8cc#\	vo-
8AA/	-cem	8F#/	-cem	8d\	-cem	8b\	-cem
!LO:LB:g=original	!	!LO:LB:g=original	!	!LO:LB:g=original	!	!LO:LB:g=original	!
=6	=6	=6	=6	=6	=6	=6	=6
4GG#/	de-	4E/	de-	4.e\	de-	8b\L	de-
.	.	.	.	.	.	8ee\J	.
8AA/L	-pre-	8F#/L	-pre-	.	.	8dd#X\L	-pre-
8AA#X/J	.	8Gn/J	.	8e\	-pre-	8cc#\J	.
4BB/	-ca-	4G#X/	-ca-	4e\	-ca-	4.b\	-ca-
8BB/L	-ti-	4F#/	-ti-	4d#X\	-ti-	.	.
8BB#X/J	.	.	.	.	.	8a\	-ti-
=7	=7	=7	=7	=7	=7	=7	=7
4C#/	-o-	4E/	-o-	4e\	-o-	4a\	-o-
4C#/	-nis,	4E/	-nis	4e\	-nis,	8g#\	-nis,
.	.	.	.	.	.	8r	.
4r	.	4.E/	de-	4r	.	4.ee\	de-
8GG#/	de-	.	.	8B/	de-	.	.
8GG#/	-pre-	8E/	-pre-	8B#X/	-pre-	8ee\	-pre-
=8	=8	=8	=8	=8	=8	=8	=8
4.AA/	-ca-	8D#X/L	-ca-	8B#X\L	-ca-	8ff#\L	-ca-
.	.	8E/J	.	8c#\J	.	8ee\J	.
.	.	8F#/L	-ti-	8d#X\L	-ti-	8dd#X\L	-ti-
8AA#X/	-ti-	8Gn/J	.	8e\J	.	8cc#\J	.
4BB/	-o-	4G#X/	-o-	4e\	-o-	4cc#\	-o-
4BB/	-nis	4F#/	-nis	4d#\	-nis	16cc#\LL	.
.	.	.	.	.	.	16b\JJ	.
.	.	.	.	.	.	16a\LL	-nis
.	.	.	.	.	.	16f#\JJ	.
=9	=9	=9	=9	=9	=9	=9	=9
8E\	me-	8E/	me-	8e\	me-	8f#/	me-
!LO:SIC:v:l:s=-ae,	!	!LO:SIC:v:l:s=-ae,	!	!LO:SIC:v:l:s=-ae,	!	!LO:SIC:v:l:s=-ae,	!
8E\	-e,	8E/	-e,	8e\	-e,	8e/	-e,
4r	.	4r	.	4r	.	4r	.
4.BB/	vo-	4.E/	vo-	4.dn\	vo-	4g#\	vo-
.	.	.	.	.	.	4g#\	-cem
8BB/	-cem	8E/	-cem	8d\	-cem	.	.
!	!	!	!	!	!	!LO:LB:g=original	!
=10	=10	=10	=10	=10	=10	=10	=10
8GG#/L	vo-	4E/	vo-	8d\L	vo-	8b\L	vo-
8AA/J	.	.	.	8c#\J	.	8a\J	.
8AA/L	-cem	4E/	-cem	4c#\	-cem	4a\	-cem
8GG#/J	.	.	.	.	.	.	.
!LO:LB:g=original	!	!	!	!LO:LB:g=original	!	!	!
4FF#/	vo-	8E/L	vo-	4c#\	vo-	4.a#X\	vo-
.	.	8G#X/J	.	.	.	.	.
4FF#/	-cem	8F#/L	-cem,	8c#\L	-cem	.	.
.	.	8E/J	.	8f#\J	.	8a#\	-cem
!	!	!LO:LB:g=original	!	!	!	!	!
=11	=11	=11	=11	=11	=11	=11	=11
4BB/	vo-	4E/	vo-	4a#X\	vo-	4cc#\	vo-
8BB/L	-cem	8D/	-cem	8b\	-cem	8b\	-cem
8AA/J	.	8r	.	8r	.	8r	.
4GG#/	de-	4B\	de-	4e\	de-	4dd\	de-
4AA/	-pre-	4A\	-pre-	4e\	-pre-	4cc#\	-pre-
=12	=12	=12	=12	=12	=12	=12	=12
4D\	-ca-	4A\	-ca-	4f#\	-ca-	8ff#\L	-ca-
.	.	.	.	.	.	8b\J	.
4D#X\	-ti-	4A\	-ti-	4f#\	-ti-	4b\	-ti-
4E\	-o-	4A\	-o-	4e\	-o-	4b\	-o-
4Fn\	-nis	4A\	-nis	4fn\	-nis	4b\	-nis
=13	=13	=13	=13	=13	=13	=13	=13
4E\	me-	4G#/	me-	4e\	me-	8cc#\L	me-
.	.	.	.	.	.	8b\J	.
!LO:SIC:v:l:s=-ae,	!	!LO:SIC:v:l:s=-ae,	!	!LO:SIC:v:l:s=-ae	!	!LO:SIC:v:l:s=-ae,	!
4E\	-e,	4G#/	-e,	4e\	-e	4b\	-e,
4.E\	vo-	2r	.	4.e\	vo-	2r	.
8E\	-cem	.	.	8e\	-cem	.	.
=14	=14	=14	=14	=14	=14	=14	=14
2E\	de-	2r	.	2e\	vo-	2r	.
2GG#/	-pre-	4.B\	de-	2e\	-cem	4.ee\	vo-
.	.	8B\	-pre-	.	.	8dd\	.
!	!	!	!	!	!	!LO:LB:g=original	!
=15	=15	=15	=15	=15	=15	=15	=15
4AA/	-ca-	4A\	-ca-	4e\	de-	4cc#\	-cem
8BB/	-ti-	8G#\	-ti-	8e\	-pre-	4r	.
8r	.	8r	.	8r	.	.	.
!	!	!	!	!LO:LB:g=original	!	!	!
8C#/	-o-	8A\	-o-	8e\	-ca-	2r	.
8r	.	8r	.	8r	.	.	.
8BB/	-nis	8G#\	-nis	8e\	-ti-	.	.
8r	.	8r	.	8r	.	.	.
!LO:LB:g=original	!	!	!	!	!	!	!
=16	=16	=16	=16	=16	=16	=16	=16
!	!	!	!	!	!	!LO:TX:a:t=1.	!
8C#/	me-	8A\	me-	8e\	-o-	1r	.
!LO:SIC:v:l:s=-ae,	!	!LO:SIC:v:l:s=-ae	!	!	!	!	!
8C#/	-e,	8A\	-e	8e\	-nis,	.	.
4r	.	4r	.	4r	.	.	.
2r	.	2r	.	4.f#\	de-	.	.
.	.	.	.	8f#\	-pre-	.	.
!	!	!LO:LB:g=original	!	!	!	!	!
=17	=17	=17	=17	=17	=17	=17	=17
2r	.	2r	.	2f#\	-ca-	2r	.
4.AA#X/	vo-	4.c#\	de-	2f#\	-ti-	4.ff#\	vo-
8AA#/	-cem	8c#\	-pre-	.	.	8ee\	.
=18	=18	=18	=18	=18	=18	=18	=18
4BB/	de-	4B\	-ca-	4f#\	-o-	4dd#X\	-cem
8C#/	-pre-	8A#X\	-ti-	8f#\	-nis	4r	.
8r	.	8r	.	8r	.	.	.
8D/	-ca-	8B\	-o-	8f#\	vo-	2r	.
8r	.	8r	.	8r	.	.	.
8C#/	-ti-	8A#\	-nis	8f#\	-cem	.	.
8r	.	8r	.	8r	.	.	.
=19	=19	=19	=19	=19	=19	=19	=19
8D\	-o-	8B\	me-	4f#\	vo-	2r	.
!	!	!LO:SIC:v:l:s=-ae,	!	!	!	!	!
8D\	-nis	8B\	-e,	.	.	.	.
4r	.	4r	.	8f#\	-cem	.	.
.	.	.	.	8r	.	.	.
4BB/	de-	8B\L	vo-	4f#\	de-	8dd#X\L	de-
.	.	8d#X\J	.	.	.	8aa\J	.
4BB#X/	-pre-	4d#\	-cem	8g#X\L	-pre-	8gg#\L	-pre-
.	.	.	.	8a\J	.	8ff#\J	.
!	!	!	!	!LO:LB:g=original	!	!	!
=20	=20	=20	=20	=20	=20	=20	=20
2C#/	-ca-	2c#\	de-	2g#X\	-ca-	2ee\	-ca-
2AA#X/	-ti-	2c#\	-pre-	2gn\	-ti-	2ee\	-ti-
=21	=21	=21	=21	=21	=21	=21	=21
2BB/	-o-	2B\	-ca-	2g#X\	-o-	2ee\	-o-
2BB/	-nis	2B\	-ti-	4f#\	.	8ee\L	.
.	.	.	.	.	.	8dd#X\	.
.	.	.	.	4a\	-nis	8cc#X\	-nis
.	.	.	.	.	.	8dd#\J	.
!LO:LB:g=original	!	!	!	!	!	!LO:LB:g=original	!
=22	=22	=22	=22	=22	=22	=22	=22
1E	me-	4B\	-o-	4g#X\	me-	1ee	me-
.	.	4c#\	-nis	4a\	.	.	.
.	.	4B\	me-	4g#\	.	.	.
.	.	4c#\	.	4a\	.	.	.
!	!	!LO:LB:g=original	!	!	!	!	!
=23	=23	=23	=23	=23	=23	=23	=23
!LO:SIC:v:l:s=-ae.	!	!LO:SIC:v:l:s=-ae.	!	!LO:SIC:v:l:s=-ae	!	!LO:SIC:v:l:s=-ae,	!
2E;\	-e.	2B;\	-e.	2g#;\	-e	2ee;\	-e,
4r	.	4r	.	4r	.	4r	.
*k[fncngn]	*	*k[fncngn]	*	*k[fncngn]	*	*k[cnfngn]	*
*M3\4	*	*	*	*	*	*	*
!LO:TX:t=P:problem:kolejność znaków Fn Cn Gn, nie wyświetlają się	!	!LO:TX:t=P:problem:kolejność znaków Fn cn Gn, nie wyświetlają się	!	!LO:TX:t=P:problem:kolejność znaków fn cn gn, nie wyświetlają się	!	!LO:TX:t=P:problem:kolejność znaków fn ccn gn, nie wyświetlają się	!
!	!	!	!	!LO:TX:t=P:problem:kreska taktowa podwójna	!	!	!
!	!	!	!	!LO:TX:t=P:problem:skreślony dźwięk 8e	!	!	!
!LO:N:vis=8	!	!	!	!LO:N:vis=8	!	!LO:N:vis=8	!
4E\	dum	4E/	dum	4e\	dum	4e/	dum
=24	=24	=24	=24	=24	=24	=24-	=24
*	*	*M3/4	*	*M3/4	*	*M3/4	*
4.A\	O-	4.A\	o-	4.a\	o-	4.a\	o-
8B\	.	8B\	.	8b\	-ro	8b\	.
8c\	-ro	8c\	-ro	8cc\L	ad	8ccn\	-ro
8d\	ad	8d\	ad	8dd\J	.	8dd\	ad
!	!	!	!	!LO:LB:g=original	!	!	!
=25	=25	=25	=25	=25	=25	=25	=25
4e\	te-	4e\	te-	2ee\	te,	4ee\	te,
8E\	-,	8E/	-,	.	.	4r	.
8r	.	8r	.	.	.	.	.
8.C/L	dum	4E/	dum	8r	.	8r	.
!	!	!	!	!LO:N:vis=8.	!	!	!
.	.	.	.	16.e\LL	dum	8e/	dum
16BB/Jk	.	.	.	.	.	.	.
!	!	!	!	!LO:N:vis=16	!	!	!
.	.	.	.	32d\JJk	.	.	.
=26	=26	=26	=26	=26	=26	=26	=26
4.AA/	o-	4.E/	o-	4.c\	o-	2cc\	o-
8C/	.	8A/	.	8e\	.	.	.
8D\L	-ro	8F/	-ro	8fn\	-ro	8b\	-ro
8D#X\J	ad	8F#X/	ad	8d#X\	ad	8a\	ad
=27	=27	=27	=27	=27	=27	=27	=27
4E;\	te.	4G#X/	te,	4e;\	te	4g#X;\	te.
!	!	!	!	!	!	!LO:TX:b:i:t=Votli Subitto.	!
4r;	.	4r	.	4r;	.	4r;	.
!LO:LB:g=original	!	!	!	!	!	!	!
8E\	dum	8Gn/	dum	8e\	dum	8b\	dum
8E\	ex-	8G/	ex-	8e\	ex-	8b\	ex-
=28||	=28||	=28||	=28||	=28||	=28||	=28||	=28||
*M4/4	*	*M4/4	*	*M4/4	*	*M4/4	*
*met(C.)	*	*met(C.)	*	*met(C.)	*	*met(C.)	*
!LO:TX:t=P:problem:mixed beam	!	!	!	!	!	!	!
8E\L	-tol-	8G#X/L	-tol-	4e\	-tol-	8b\L	-tol-
8AA/J	.	8A/J	.	.	.	8ccn\J	.
4AA/	-lo	4A/	-lo	4e\	-lo	4cc\	-lo
!	!	!LO:LB:g=original	!	!	!	!	!
4GG/	ma-	8cn\L	ma-	4gn\	ma-	(8ee\L	ma-
.	.	8B\	.	.	.	8dd\J)	.
4GG/	-nus	8A\	-nus	4g\	-nus	(8cc\L	-nus
.	.	8B\J	.	.	.	8dd\J)	.
=29	=29	=29	=29	=29	=29	=29	=29
4C/	me-	8d\L	me-	4g\	me-	8ffn\L	me-
.	.	8c\J	.	.	.	8ee\J	.
4C/	-as	4c\	-as	4g\	-as	4ee\	-as
2FF/	ad	4A\	ad-	2fn\	ad	8ee\L	ad
.	.	.	.	.	.	8ff\	.
.	.	4A\	-,	.	.	8ee\	.
.	.	.	.	.	.	8dd\J	.
!	!	!	!	!LO:LB:g=original	!	!	!
=30	=30	=30	=30	=30	=30	=30	=30
4GG/	Tem-	4Gn/	Tem-	4e\	Tem-	4.cc\	Tem-
4GG/	-plum	4F#X/	-plum	4e-X\	-plum	.	.
.	.	.	.	.	.	8cc\	-plum
4GG/	ſan-	4Fn/	ſan-	4d\	ſan-	8cc\L	san-
.	.	.	.	.	.	8b\J	.
4GG/	-ctum	4F/	-ctum	4d\	-ctum	8a\L	-ctum
.	.	.	.	.	.	8b\J	.
!	!	!	!	!	!	!LO:LB:g=original	!
=31	=31	=31	=31	=31	=31	=31	=31
4AA/	tu-	4E/	tu-	4cn\	tu-	4cc\	tu-
4GG/	-um	4E/	-um	4c\	-um,	4cc\	-um
4FF/	dum	4A\	dum	4d\	dum	8gg\L	dum
.	.	.	.	.	.	8ff\J	.
4FF/	ex-	4A\	ex-	4fn\	ex-	8a\L	ex-
.	.	.	.	.	.	8dd\J	.
=32	=32	=32	=32	=32	=32	=32	=32
4GG/	-tol-	4Gn/	-tol-	4e\	-tol-	8cc\L	-tol-
.	.	.	.	.	.	8gg\J	.
4GG/	-lo	8B\L	-lo	8d\L	-lo	8ff\L	-lo
.	.	8c\J	.	8c\J	.	8ee\J	.
4GG/	ma-	8G/L	ma-	4B/	ma-	8ee\L	ma-
.	.	8F/J	.	.	.	8dd\J	.
4GG/	-nus	8E/L	-nus	8c\L	-nus	8cc\L	-nus
.	.	8D/J	.	8d\J	.	8b\J	.
!LO:LB:g=original	!	!LO:LB:g=original	!	!	!	!	!
=33	=33	=33	=33	=33	=33	=33	=33
4C/	me-	4E/	me-	4cn\	me-	4cc\	me-
4C/	-as	4E/	-as,	4c\	-as	4cc\	-as,
2r	.	4cn\	ad	2r	.	2r	.
.	.	4B\	.	.	.	.	.
=34	=34	=34	=34	=34	=34	=34	=34
!	!	!	!	!	!	!LO:TX:a:t=1.	!
2r	.	2.B-X\	tem-	2r	.	1r	.
4D\	Tem-	.	.	4fn\	Tem-	.	.
4D\	-plum	4A\	-plum	4f\	-plum	.	.
=35	=35	=35	=35	=35	=35	=35	=35
2.E\	san-	2.G#X/	san-	2.e\	Tem-	2r	.
.	.	.	.	.	.	4ee\	ad
4E\	-ctum	4G#/	-ctum	4e\	-plum	4dd\	.
!	!	!	!	!LO:LB:g=original	!	!	!
=36	=36	=36	=36	=36	=36	=36	=36
1AA	tu-	2A\	tu-	2e\	tu-	4.cc\	Tem-
.	.	.	.	.	.	8cc\	-plum
!	!	!	!	!	!	!LO:TX:a:t=P:problem:dżwięk poprawiany 4b/4cc	!
.	.	2G#X\	.	2d\	.	4cc\	san-
!	!	!	!	!	!	!LO:TX:a:t=P:problem:dżwięk poprawiany 4a/4b	!
.	.	.	.	.	.	4b\	-ctum
!	!	!	!	!	!	!LO:LB:g=original	!
=37	=37	=37	=37	=37	=37	=37	=37
2AA/	-um,	2A\	-um,	2cn\	-um,	4a\	tu-
.	.	.	.	.	.	4a\	-um
4C/	ad	2r	.	2r	.	2r	.
4BB/	.	.	.	.	.	.	.
=38	=38	=38	=38	=38	=38	=38	=38
!	!	!LO:TX:a:t=1.	!	!	!	!LO:TX:a:t=2.	!
1AA	Tem-	1r	.	2r	.	0r	.
.	.	.	.	4cn\	ad	.	.
.	.	.	.	4d\	.	.	.
=39	=39	=39	=39	=39	=39	=39	=39
1AA	-plum	2r	.	1e	Tem-	.	.
.	.	4A\	ad	.	.	.	.
.	.	4B\	.	.	.	.	.
=40	=40	=40	=40	=40	=40	=40	=40
2AA/	san-	2.cn\	Tem-	1e	-plum	2r	.
4AA/	.	.	.	.	.	4ee\	ad
4BB/	-ctum	4G#X/	-plum	.	.	4dd\	.
!LO:LB:g=original	!	!LO:LB:g=original	!	!	!	!	!
=41	=41	=41	=41	=41	=41	=41	=41
4.C/	san-	4.A/	san-	4.e\	san-	4.cc\	Tem-
8AA/	.	8A/	-ctum	8e\	-ctum	8cc\	-plum
4.E\	ctum	2G#X/	tu-	4.e\	tu-	4cc\	tu-
.	.	.	.	.	.	8b\L	.
8E\	tu-	.	.	8d\	.	8a\J	.
=42	=42	=42	=42	=42	=42	=42	=42
2AA;/	-um.	2A;\	-um	2cn;\	-um	2a;\	-um,
4r;	.	4r;	.	4r	.	4r	.
*k[f#c#g#]	*	*k[f#c#g#]	*	*	*	*k[c#f#g#]	*
*met(C.)	*	*	*	*	*	*	*
!LO:TX:t=P:problem:kreska taktowa pojedyncza	!	!	!	!	!	!	!
!LO:TX:t=P:problem:kolejność znaków F# C# G#, nie wyświetla się	!	!LO:TX:t=P:problem:kolejność znaków F# c# G#, nie wyświetlają się	!	!	!	!LO:TX:t=P:problem:kolejność znaków cc# f# g#, nie wyświetlają się	!
8AA/	ſal-	8c#\	ſal-	8a\	ſal-	8ee\	ſal-
!	!	!	!	!LO:TX:t=P:problem:kreska taktowa pojedyncza	!	!	!
8AA/	-vum	8c#\	-vum	8a\	-vum	8ee\	-vum
!	!	!	!	!LO:LB:g=original	!	!	!
=43||	=43||	=43||	=43||	=43||	=43||	=43||	=43||
*	*	*	*	*k[f#c#g#]	*	*	*
*	*	*met(C.)	*	*met(C.)	*	*	*
!	!	!LO:TX:t=P:problem:skreślone dźwięki 8c# 8c#	!	!	!	!	!
2AA/	fac	2c#\	fac	2a\	fac	2ee\	fac
8GG#/L	po-	8d\L	po-	8b\L	po-	2ee\	po-
8AA/J	.	8c#\J	.	8a\J	.	.	.
8BB/	-pu-	8B\L	.	8g#X\L	-pu-	.	.
8C#/	-lum	8A\J	.	8e\J	-lum	.	.
=44	=44	=44	=44	=44	=44	=44	=44
8C#/L	tu-	8A/L	-pu-	4e\	tu-	4ee\	-pu-
8D/J	.	8G#/J	.	.	.	.	.
!	!	!	!	!	!	!LO:LB:g=original	!
4D\	-um,	4G#/	-lum	4e\	-tum	4ee\	-lum
4r	.	8E/L	tu-	4r	.	8ee\L	tu-
.	.	8F#/J	.	.	.	8dd#X\J	.
8BB/L	po-	8G#/L	-um	8e\	tu-	8ddn\L	-um
8AA/J	.	8A/J	.	8e\	-um	8cc#\J	.
!LO:LB:g=original	!	!LO:LB:g=original	!	!	!	!	!
=45	=45	=45	=45	=45	=45	=45	=45
4.GG#/	-pu-	4B\	Do-	8e\L	Do-	4b\	Do-
.	.	.	.	8fn\J	.	.	.
.	.	8A#X\L	.	2e\	.	8cc#\L	.
8GG#/	-lum	8B\J	.	.	.	8dd\J	.
4GG#/	tu-	8c#\L	.	.	.	8ee\L	.
.	.	8B\J	.	.	.	8dd\J	.
8AA/L	-um	8An/L	.	4e\	-mi-	8cc#\L	-mi-
8BB/J	.	8G#/J	-mi-	.	.	8b\J	.
=46	=46	=46	=46	=46	=46	=46	=46
!	!	!	!	!LO:TX:b:i:t=Volti Subitto,	!	!	!
8.AA/	do-	4G#X/	-ne-	2e\	-ne,	4b#X\	-ne
16AA/	-mi-	.	.	.	.	.	.
4AA/	-ne,	4A/	-,	.	.	4cc#\	,
!	!	!	!	!LO:PB:g=original	!	!	!
4r	.	4r	.	4r	.	4r	.
8AA/	sal-	8A/	sal-	8c#\	ſal-	8ee\	sal-
8BB/	-vum	8G#/	-vum	8d\	-vum	8ee\	-vum
=47	=47	=47	=47	=47	=47	=47	=47
4BB#X/	fac	2A/	fac	4d#X\	fac	(4ff#\	fac
4C#/	.	.	.	4e\	.	4ee\)	.
4BBn/	Do-	4G#/	Do-	4e\	Do-	4dd\	Do-
4AA/	-mi-	4A/	-mi-	4e\	-mi-	4cc#\	-mi-
=48	=48	=48	=48	=48	=48	=48	=48
[4Dn\	-ne-	2F#/	-ne	2dn\	-ne,	(8cc#\L	-ne
.	.	.	.	.	.	8b\J	.
8D\]	-,	.	.	.	.	4b\)	,
8r	.	.	.	.	.	.	.
!	!	!	!	!	!	!LO:LB:g=original	!
4C#\	et	4Gn/	et-	2e\	et	4a#X\	et
4D\	.	4F#/	-,	.	.	4b\	.
=49	=49	=49	=49	=49	=49	=49	=49
2D\	re-	2A\	re-	4f#\	re-	4ff#\	re-
.	.	.	.	4f#\	-ge	4b\	-ge
2D#X\	-ge	2A\	-ge	2f#\	e-	4.cc#\	re-
.	.	.	.	.	.	8b\	-ge
=50	=50	=50	=50	=50	=50	=50	=50
4E\	e-	4G#/	e-	2e\	-os,	4b\	e-
4E\	-os,	4G#/	-os,	.	.	4b\	-os,
2r	.	2r	.	2r	.	4r	.
.	.	.	.	.	.	8b\	et
.	.	.	.	.	.	8b\	ex-
!LO:PB:g=original	!	!LO:PB:g=original	!	!	!	!	!
=51	=51	=51	=51	=51	=51	=51	=51
4r	.	4r	.	4r	.	4cc#\	-tol-
8.D\	et	8B\	et	8f#\	et	4b\	-le
.	.	8B\	ex-	8f#\	ex-	.	.
16D\	ex-	.	.	.	.	.	.
4E\	-tol-	4A#X\	-tol-	4gn\	-tol-	4r	.
4D\	-le	4B\	-le	4f#\	-le	8b\	et
.	.	.	.	.	.	8b\	ex-
!	!	!	!	!LO:LB:g=original	!	!	!
=52	=52	=52	=52	=52	=52	=52	=52
4r	.	4r	.	4r	.	4cc#\	-tol-
8E\	et	8.B\	et	8gn\	et	4b\	-le
8E\	ex-	.	.	8g\	ex-	.	.
.	.	16B\	ex-	.	.	.	.
8D#X\L	-tol-	4B\	-tol-	8g\L	-tol-	4b\	et
8E\J	.	.	.	8g#X\J	.	.	.
4E\	-le	8B\L	-le	4g#\	-le	4gg#X\	.
.	.	8B#X\J	.	.	.	.	.
!	!	!	!	!	!	!LO:LB:g=original	!
=53	=53	=53	=53	=53	=53	=53	=53
2E\	et	4c#\	et	2a\	et	4ff#\	re-
.	.	8c#\L	.	.	.	8ee\L	.
.	.	8B#X\J	.	.	.	8dd#X\J	.
4E\	re-	8d#X\L	re-	4a\	re-	8ff#\L	.
.	.	8c#\J	.	.	.	8ee\J	.
4E\	-ge	8Bn\L	-ge	4a\	-ge	8dd#\L	-ge
.	.	8A\J	.	.	.	8cc#\J	.
=54	=54	=54	=54	=54	=54	=54	=54
4E\	e-	4A#X\	il-	4f#\	e-	4cc#\	e-
4E\	-os	4B\	-los,	4g#\	-os	4b\	-os,
4GG#/	et	4dn\	et	4e\	et	4ee\	et
4GG#/	ex-	4d\	ex-	4e\	ex-	4ee\	ex-
!	!	!LO:LB:g=original	!	!	!	!	!
=55	=55	=55	=55	=55	=55	=55	=55
2GG#/	-tol-	2d\	-tol-	2e\	-tol-	4ff#\	-tol-
.	.	.	.	.	.	4ee\	.
2GG#/	-le	2d\	-le	2e\	-le	4dd#X\	-le
.	.	.	.	.	.	4ee\	.
!LO:LB:g=original	!	!	!	!	!	!	!
=56	=56	=56	=56	=56	=56	=56	=56
4AA/	e-	8d\L	e-	4e\	e-	4ff#\	e-
.	.	8c#\J	.	.	.	.	.
4AA/	-os,	4c#\	-os,	4e\	-os,	4ee\	-os,
4AA/	ſal-	8d\L	sal-	4e\	ſal-	4ee\	sal-
.	.	8c#\J	.	.	.	.	.
4AA/	-vum	8B\L	-vum	4e\	-vum	4ee\	-vum
.	.	8A\J	.	.	.	.	.
!	!	!	!	!LO:LB:g=original	!	!	!
=57	=57	=57	=57	=57	=57	=57	=57
4BB/	fac	4G#/	fac	4e\	fac	4ff#\	fac
4BB/	po-	4G#/	po-	4e\	po-	4ee\	po-
4BB/	-pu-	4G#/	-pu-	4e\	-pu-	4dd#X\	-pu-
4BB/	-lum	4G#/	-lum	4e\	-lum	4ee\	-lum
!	!	!	!	!	!	!LO:LB:g=original	!
=58	=58	=58	=58	=58	=58	=58	=58
4C#/	tu-	8G#/L	tu-	4e\	tu-	4ff#\	tu-
.	.	8A/J	.	.	.	.	.
4C#/	-um	4A\	-um,	4e\	-um	4ee\	-um
4C#/	et	2A\	et	2e\	et	8dd#X\L	et
.	.	.	.	.	.	8ee\J	.
4C#/	.	.	.	.	.	8ee\L	.
.	.	.	.	.	.	8ff#\J	.
=59	=59	=59	=59	=59	=59	=59	=59
2Cn/	re-	2A#X\	re-	2e\	re-	4ggn\	re-
.	.	.	.	.	.	4ee\	.
2C/	-ge	2A#\	-ge	2e\	-ge	4dd#X\	-ge
.	.	.	.	.	.	4ee\	.
=60	=60	=60	=60	=60	=60	=60	=60
2BB/	e-	2.B\	e-	2.d#X\	e-	2ff#\	e-
2BB/	-os	.	.	.	.	4b\	-[[os,]]-
.	.	8A#X\L	-os	8e\L	-os,	8cc#\L	-os,
.	.	8An\J	.	8f#\J	.	8dd#X\J	.
!	!	!LO:LB:g=original	!	!	!	!	!
=61	=61	=61	=61	=61	=61	=61	=61
4.Cn/	et	4Gn/	et	4.e\	et	4ee\	et
.	.	4F#/	ex-	.	.	4ff#\	ex-
8C/	ex-	.	.	8e\	ex-	.	.
4C/	-tol-	8D/L	-tol-	4e\	-tol-	4.ggn\	-tol-
.	.	8A#X/J	.	.	.	.	.
4C/	-le	4A#\	-le	4e\	-le	.	.
.	.	.	.	.	.	8ff#\	-le
!LO:LB:g=original	!	!	!	!	!	!	!
=62	=62	=62	=62	=62	=62	=62	=62
4BB/	il-	4B\	il-	4d#X\	il-	2ff#\	illos,
4BB/	-los,	4B\	-los	4d#\	-los	.	.
!	!	!	!	!LO:LB:g=original	!	!	!
4r	.	4r	.	4r	.	2r	.
8BB/	et	8B\L	et	8d#X\L	et	.	.
8C#X/	ex-	8A#X\J	.	8e\J	.	.	.
=63	=63	=63	=63	=63	=63	=63	=63
4D#X\	-tol-	4An\	re-	4f#\	re-	4r	.
4D#\	-le	4A\	-ge	4f#\	-ge	8.b\	re-
.	.	.	.	.	.	16b\	-ge
!	!	!	!	!	!	!LO:LB:g=original	!
4r	.	4r	.	4r	.	8.cc#\	et
.	.	.	.	.	.	16cc#\	ex-
8.D#\	et	8.A/	et	8.f#\	et	8.b\	-tol-
16E\	ex-	16G#/	ex-	16e\	ex-	16b\	-le
=64	=64	=64	=64	=64	=64	=64	=64
4E\	-tol-	4Gn/	-tol-	4e\	-tol-	4a#X\	il-
4E\	-le	8G#X/	-le	8e\	-le	8b\	-los
.	.	8r	.	8r	.	8r	.
4E\	et	4B\	re-	4g#\	re-	4b\	re-
4E\	ex-	4B#X\	-ge	4g#\	-ge	4gg#X\	-ge
=65	=65	=65	=65	=65	=65	=65	=65
4E\	-tol-	4c#\	et	4a\	et	4ff#\	et
4E\	-le	8c#\L	ex-	4a\	ex-	8ee\L	.
.	.	8B#X\J	.	.	.	8dd#X\J	ex
!	!	!LO:LB:g=original	!	!	!	!	!
4E\	re-	8d#X\L	-tol-	4a\	-tol-	8ff#\L	tol-
.	.	8c#\J	.	.	.	8ee\J	.
4E\	-ge	8B#\L	-le	4a\	-le	8dd#\L	-le
.	.	8A\J	.	.	.	8cc#\J	.
=66	=66	=66	=66	=66	=66	=66	=66
4E\	e-	4Gn/	il-	4e\	il-	4a#X\	il-
4E\	-os	4G#X/	-los,	4e\	-los,	4b\	-los,
4r	.	4G#/	et	4e\	et	4b\	et
8D\	et	4G#/	ex-	4e\	ex-	4b\	ex-
8D\	ex-	.	.	.	.	.	.
!LO:LB:g=original	!	!	!	!LO:LB:g=original	!	!	!
=67	=67	=67	=67	=67	=67	=67	=67
4.D\	-tol-	2.G#/	-tol-	2e\	-tol-	(4.cc#\	-tol-
8D\	-le	.	.	.	.	8b\)	.
!	!	!	!	!	!	!LO:LB:g=original	!
4D/	ex-	.	.	2e\	-le	8a#X\L	.
.	.	.	.	.	.	8b\J	.
8C#/	-tol-	8A/L	-le	.	.	8cc#\L	-le
8BB/	-le	8G#/J	.	.	.	8ddn\J	.
=68	=68	=68	=68	=68	=68	=68	=68
4BB#X/	il-	4A\	il-	4d#X\	il-	4ff#\	il-
4C#/	-los	4A\	-los,	4e\	-los	4ee\	-los
4AA/	us-	4.A\	us-	4c#\	us-	8ff#\L	us-
.	.	.	.	.	.	8ee\J	.
8BBn/L	-que	.	.	8dn\L	-que	8dd\L	-que
8C#/J	.	8A\	-que	8e\J	.	8cc#\J	.
=69	=69	=69	=69	=69	=69	=69	=69
4.D\	us-	4G#/	us-	4.e\	us-	4.cc#\	us-
.	.	4G#/	-que	.	.	.	.
8D\	-que	.	.	8e\	-que	8b\	-que
4D\	in	4G#/	in	4.e\	in	8a#X\L	in
.	.	.	.	.	.	8b\J	.
!LO:SIC:v:l:s=ae-	!	!LO:SIC:v:l:s=ae-	!	!	!	!LO:SIC:v:l:s=ae-	!
8C#/L	e-	8A/L	e-	.	.	8cc#\L	e-
!	!	!	!	!LO:SIC:v:l:s=ae-	!	!	!
8BB/J	.	8G#/J	.	8e\	e-	8dd\J	.
=70	=70	=70	=70	=70	=70	=70	=70
4AA/	-ter-	4A\	-ter-	4dn\	-ter-	4ff#\	-ter-
8AA/	-num	8A\	-num,	8c#\	-num,	8ee\	-num
8r	.	8r	.	8r	.	8r	.
!	!	!LO:LB:g=original	!	!	!	!	!
4AA/	re-	4c#\	re-	4c#\	re-	4ee\	re-
8BB/L	-ge	8B\L	-ge	8d\L	-ge	8dd\L	-ge
8C#/J	.	8A\J	.	8e\J	.	8cc#\J	.
=71	=71	=71	=71	=71	=71	=71	=71
4D\	et	4F#/	et	4d\	et	4a#X\	et
!	!	!	!	!	!	!LO:LB:g=original	!
4D\	ex-	4F#/	ex-	4d\	ex-	4b\	ex-
!LO:LB:g=original	!	!	!	!	!	!	!
4D\	-tol-	4F#/	-tol-	4d\	-tol-	8a#X\L	-tol-
.	.	.	.	.	.	8b\J	.
4D\	-le	4B\	-le	4f#\	-le	8dd\L	-le
.	.	.	.	.	.	8ff#\J	.
!	!	!	!	!LO:LB:g=original	!	!	!
=72	=72	=72	=72	=72	=72	=72	=72
4E\	il-	4.c#\	il-	4a\	il-	4ff#\	il-
4E\	-los,	.	.	4a\	-los,	4ee\	-los
.	.	8cn\	-los,	.	.	.	.
4E\	re-	4B\	re-	4g#\	re-	8dd#X\L	re-
.	.	.	.	.	.	8ee\J	.
4E\	-ge	4d\	-ge	4b\	-ge	8ff#\L	-ge
.	.	.	.	.	.	8gg#X\J	.
=73	=73	=73	=73	=73	=73	=73	=73
2F#\	et	2c#\	et	2a\	et	2aa\	et
2AA/	ex-	4Gn/	.	2e\	ex-	4aa\	.
.	.	4G/	ex-	.	.	4cc#\	ex-
=74	=74	=74	=74	=74	=74	=74	=74
4AA/	-tol-	4F#/	-tol-	4d\	-tol-	4dd\	-tol-
4AA/	-le	4F#/	-le	4d\	-le	8ee\L	-le
.	.	.	.	.	.	8ff#\J	.
2AA/	il-	4Fn/	il-	4d\	il-	4g#\	il-
.	.	8E/L	.	8c#\L	.	8a\L	.
.	.	8G#/J	.	8B\J	.	8b\J	.
=75	=75	=75	=75	=75	=75	=75	=75
2AA/	-los	2A\	-los	4A/	.	2cc#\	-los
.	.	.	.	4e\	-los	.	.
!	!	!LO:LB:g=original	!	!	!	!	!
4r	.	4r	.	4r	.	4r	.
8.BB/	in	8.A\	in	8.e\	in	8.dd\	in
!LO:SIC:v:l:s=ae-	!	!LO:SIC:v:l:s=ae-	!	!LO:SIC:v:l:s=ae-	!	!LO:SIC:v:l:s=ae-	!
16C#/	e-	16A\	e-	16e\	e-	16ee\	e-
!	!	!	!	!	!	!LO:LB:g=original	!
=76	=76	=76	=76	=76	=76	=76	=76
4D\	-ter-	4A\	-ter-	4d\	-ter-	4ff#\	-ter-
4D\	-num	4A\	-num	4d\	-num	4ff#\	-num
4r	.	4r	.	4r	.	4r	.
8BB/	in	8E/	in	8d\	in	8g#\	in
!LO:SIC:v:l:s=ae-	!	!LO:SIC:v:l:s=ae-	!	!LO:SIC:v:l:s=ae-	!	!LO:SIC:v:l:s=ae-	!
8BB/	e-	8E/	e-	8d\	e-	8g#\	e-
!	!	!	!	!LO:LB:g=original	!	!	!
=77	=77	=77	=77	=77	=77	=77	=77
2AA/	-ter-	2E/	-ter-	2c#\	-ter-	2a\	-ter-
4AA/	-num.	4E/	-num.	4c#\	-num.	4a\	-num.
4r	.	4r	.	4r	.	4r	.
==	==	==	==	==	==	==	==
*-	*-	*-	*-	*-	*-	*-	*-
!!!system-decoration: [(s1,s2,s3,s4)]
!!!ENC: Marta Lawrence
!!!END: 2021-01-18
!!!ENC: Andrzej Kubiczek
!!!END: 2021-01-15
